icons/communication/email-dots-24.svg

<svg width="24" height="24" viewBox="0 0 24 24" fill="none" xmlns="http://www.w3.org/2000/svg">
<path fill-rule="evenodd" clip-rule="evenodd" d="M0 4.75C0 3.7835 0.783502 3 1.75 3H22.25C23.2165 3 24 3.7835 24 4.75V13.2536C24 13.6678 23.6642 14.0036 23.25 14.0036C22.8358 14.0036 22.5 13.6678 22.5 13.2536V7.18716L12.7516 11.8231C12.276 12.0492 11.724 12.0492 11.2484 11.8231L1.5 7.18715V18.75C1.5 18.8881 1.61193 19 1.75 19H4.25C4.66421 19 5 19.3358 5 19.75C5 20.1642 4.66421 20.5 4.25 20.5H1.75C0.783502 20.5 0 19.7165 0 18.75V4.75ZM1.5 5.52618L11.8926 10.4685C11.9606 10.5008 12.0394 10.5008 12.1074 10.4685L22.5 5.52618V4.75C22.5 4.61193 22.3881 4.5 22.25 4.5H1.75C1.61193 4.5 1.5 4.61193 1.5 4.75V5.52618Z" fill="black"/>
<path d="M13 19.5C13 20.3284 12.3284 21 11.5 21C10.6716 21 10 20.3284 10 19.5C10 18.6716 10.6716 18 11.5 18C12.3284 18 13 18.6716 13 19.5Z" fill="black"/>
<path d="M18.5 19.5C18.5 20.3284 17.8284 21 17 21C16.1716 21 15.5 20.3284 15.5 19.5C15.5 18.6716 16.1716 18 17 18C17.8284 18 18.5 18.6716 18.5 19.5Z" fill="black"/>
<path d="M24 19.5C24 20.3284 23.3284 21 22.5 21C21.6716 21 21 20.3284 21 19.5C21 18.6716 21.6716 18 22.5 18C23.3284 18 24 18.6716 24 19.5Z" fill="black"/>
</svg>

<svg xmlns="http://www.w3.org/2000/svg" width="24" height="24"><path fill-rule="evenodd" d="M0 4.75C0 3.784.784 3 1.75 3h20.5c.966 0 1.75.784 1.75 1.75v8.504a.75.75 0 01-1.5 0V7.187l-9.748 4.636a1.75 1.75 0 01-1.504 0L1.5 7.187V18.75c0 .138.112.25.25.25h2.5a.75.75 0 010 1.5h-2.5A1.75 1.75 0 010 18.75v-14zm1.5.776l10.393 4.943a.25.25 0 00.214 0L22.5 5.526V4.75a.25.25 0 00-.25-.25H1.75a.25.25 0 00-.25.25v.776z"/><path d="M13 19.5a1.5 1.5 0 11-3 0 1.5 1.5 0 013 0zm5.5 0a1.5 1.5 0 11-3 0 1.5 1.5 0 013 0zm5.5 0a1.5 1.5 0 11-3 0 1.5 1.5 0 013 0z"/></svg>
